icon-themes/breeze_svg/cmd/lc_fontworkgalleryfloater.svg

<svg viewBox="0 0 24 24" xmlns="http://www.w3.org/2000/svg"><path d="m6 4v1 15h1 3v-1-7h3 1v-1-1-1h-1-3v-2h8v-1-2h-11zm1 1h10v1h-8v1 3h1 3v1h-3-1v8h-2z" fill="#f47750"/></svg>

<svg xmlns="http://www.w3.org/2000/svg" viewBox="0 0 24 24">
 <path 
     style="fill:#f47750" 
     d="M 6 4 L 6 5 L 6 20 L 7 20 L 10 20 L 10 19 L 10 12 L 13 12 L 14 12 L 14 11 L 14 10 L 14 9 L 13 9 L 10 9 L 10 7 L 18 7 L 18 6 L 18 4 L 7 4 L 6 4 z M 7 5 L 17 5 L 17 6 L 9 6 L 9 7 L 9 10 L 10 10 L 13 10 L 13 11 L 10 11 L 9 11 L 9 19 L 7 19 L 7 5 z "
     />
 </svg>
